X: 022
T: BURY ASSEMBLY
C: J Reeve
%R: hornpipe, reel
B: J.Gray's Twenty four Country Dances (for the Year 1812) p.2 #2
S: http://www.eatmt.org.uk/gray_1812.htm 2014-8-7
Z: 2014 John Chambers <jc:trillian.mit.edu>
M: 2/4
L: 1/8
K: G
|:\
G2G>B | G2G>B | ABcA | GFED |\
G2G>B | G2G>B | Ac(FA) | G2G2 :|
|:\
G>AB>c | (d>e)(d>e) | (d>e)(d>e) | d>cB>A |\
G>AB>c | d>ef>g | (a[c'c])(fa) | g2-g2 :|
% - - - - - - - - - - - - - - - - - - - - - - - - -
%%begintext align
%% Hands across -- back again. lead down
%% mid: up again. & turn your partner.
%%endtext
% - - - - - - - - - - - - - - - - - - - - - - - - -
